X:1612
T:Bloom of Youth, The
R:reel
D:Kevin Burke: Up Close
Z:id:hn-reel-260
M:C|
K:G
G2DG EGDE|G2BG AE~E2|G2DG EGAB|1 cedc BGAF:|2 cedc BG~G2||
gd~d2 eB~B2|cBAc BE~E2|g2gd edBA|Bdgd BG~G2|
g2bg eB~B2|cBAc BG~G2|c2cB cdef|gedc BGAF||


